styles/2/Numix/96/places/default-fileopen.svg

<svg xmlns="http://www.w3.org/2000/svg" viewBox="0 0 96 96">
 <g>
  <path d="m 12 12 c -2 0 -4 2 -4 4 l 0 20 l -2 0 c -2 0 -4.01 1.898 -4 4 l 0 40 c 0 2.242 2.074 4 4.375 4 l 83.25 0 c 2.375 0 4.375 -2 4.375 -4 l 0 -34 c 0 -2 -2 -4 -4 -4 l -4 0 l 0 -26 c 0 -2 -2 -4 -4 -4 m -70 0" style="fill:#e8b07f;fill-opacity:1;stroke:none;fill-rule:nonzero"/>
  <path d="m 12 12 c -2 0 -4 2 -4 4 l 0 20 l -2 0 c -2 0 -4.01 1.898 -4 4 l 0 40 c 0 2.242 2.074 4 4.375 4 l 83.25 0 c 2.375 0 4.375 -2 4.375 -4 l 0 -34 c 0 -2 -2 -4 -4 -4 l -4 0 l 0 -26 c 0 -2 -2 -4 -4 -4 m -76 26 l 48 0 c 1.016 0 2 0.988 2 2 l 0 4 l 34 0 c 1.082 0 2 0.945 2 2 l 0 34 c 0 1.109 -0.902 2 -2 2 l -84 0 c -1.027 0 -2 -0.891 -2 -2 l 0 -40 c 0 -1.086 0.957 -2 2 -2 m 0 0" style="fill:#000;fill-opacity:0.322;stroke:none;fill-rule:nonzero"/>
  <path d="m 20 20 l 56 0 l 0 16 l -56 0 m 0 -16" style="fill:#fff;fill-opacity:1;stroke:none;fill-rule:nonzero"/>
  <path d="m 26 26 l 44 0 l 0 4 l -44 0 m 0 -4" style="fill:#ccc;fill-opacity:1;stroke:none;fill-rule:nonzero"/>
  <path d="m 26 34 l 44 0 l 0 2 l -44 0 m 0 -2" style="fill:#ccc;fill-opacity:1;stroke:none;fill-rule:nonzero"/>
  <path d="m 58 36 l 18 0 l 0 6 l -18 0 m 0 -6" style="fill:#fff;fill-opacity:1;stroke:none;fill-rule:evenodd"/>
  <path d="m 58 40 c 0 -1.996 -2 -4 -4 -4 l 4 0 m 0 4" style="fill:#fff;fill-opacity:1;stroke:none;fill-rule:nonzero"/>
  <path d="m 58 36 l 12 0 l 0 2 l -12 0 m 0 -2" style="fill:#ccc;fill-opacity:1;stroke:none;fill-rule:evenodd"/>
  <path d="m 54 36 c 1.293 0 2.559 0.867 3.313 2 l 0.688 0 l 0 -2 m -4 0" style="fill:#ccc;fill-opacity:1;stroke:none;fill-rule:evenodd"/>
 </g>
</svg>

<?xml version="1.0" encoding="UTF-8" standalone="no"?>
<svg
   xmlns:dc="http://purl.org/dc/elements/1.1/"
   xmlns:cc="http://creativecommons.org/ns#"
   xmlns:rdf="http://www.w3.org/1999/02/22-rdf-syntax-ns#"
   xmlns:svg="http://www.w3.org/2000/svg"
   xmlns="http://www.w3.org/2000/svg"
   xmlns:sodipodi="http://sodipodi.sourceforge.net/DTD/sodipodi-0.dtd"
   xmlns:inkscape="http://www.inkscape.org/namespaces/inkscape"
   width="96px"
   height="96px"
   viewBox="0 0 96 96"
   version="1.1"
   id="svg18115"
   inkscape:version="0.91 r"
   sodipodi:docname="default-fileopen.svg">
  <metadata
     id="metadata18140">
    <rdf:RDF>
      <cc:Work
         rdf:about="">
        <dc:format>image/svg+xml</dc:format>
        <dc:type
           rdf:resource="http://purl.org/dc/dcmitype/StillImage" />
      </cc:Work>
    </rdf:RDF>
  </metadata>
  <defs
     id="defs18138" />
  <sodipodi:namedview
     pagecolor="#ffffff"
     bordercolor="#666666"
     borderopacity="1"
     objecttolerance="10"
     gridtolerance="10"
     guidetolerance="10"
     inkscape:pageopacity="0"
     inkscape:pageshadow="2"
     inkscape:window-width="640"
     inkscape:window-height="480"
     id="namedview18136" />
  <g
     id="surface1">
    <path
       style=" stroke:none;fill-rule:nonzero;fill:rgb(91.372549%,69.019608%,50.196078%);fill-opacity:1;"
       d="M 12 12 C 10 12 8 14 8 16 L 8 36 L 6 36 C 4 36 1.988281 37.898438 2 40 L 2 80 C 2 82.242188 4.074219 84 6.375 84 L 89.625 84 C 92 84 94 82 94 80 L 94 46 C 94 44 92 42 90 42 L 86 42 L 86 16 C 86 14 84 12 82 12 Z M 12 12 "
       id="path18118" />
    <path
       style=" stroke:none;fill-rule:nonzero;fill:rgb(0%,0%,0%);fill-opacity:0.321569;"
       d="M 12 12 C 10 12 8 14 8 16 L 8 36 L 6 36 C 4 36 1.988281 37.898438 2 40 L 2 80 C 2 82.242188 4.074219 84 6.375 84 L 89.625 84 C 92 84 94 82 94 80 L 94 46 C 94 44 92 42 90 42 L 86 42 L 86 16 C 86 14 84 12 82 12 Z M 6 38 L 54 38 C 55.015625 38 56 38.988281 56 40 L 56 44 L 90 44 C 91.082031 44 92 44.945312 92 46 L 92 80 C 92 81.109375 91.097656 82 90 82 L 6 82 C 4.972656 82 4 81.109375 4 80 L 4 40 C 4 38.914062 4.957031 38 6 38 Z M 6 38 "
       id="path18120" />
    <path
       style=" stroke:none;fill-rule:nonzero;fill:rgb(100%,100%,100%);fill-opacity:1;"
       d="M 20 20 L 76 20 L 76 36 L 20 36 Z M 20 20 "
       id="path18122" />
    <path
       style=" stroke:none;fill-rule:nonzero;fill:rgb(80%,80%,80%);fill-opacity:1;"
       d="M 26 26 L 70 26 L 70 30 L 26 30 Z M 26 26 "
       id="path18124" />
    <path
       style=" stroke:none;fill-rule:nonzero;fill:rgb(80%,80%,80%);fill-opacity:1;"
       d="M 26 34 L 70 34 L 70 36 L 26 36 Z M 26 34 "
       id="path18126" />
    <path
       style=" stroke:none;fill-rule:evenodd;fill:rgb(100%,100%,100%);fill-opacity:1;"
       d="M 58 36 L 76 36 L 76 42 L 58 42 Z M 58 36 "
       id="path18128" />
    <path
       style=" stroke:none;fill-rule:nonzero;fill:rgb(100%,100%,100%);fill-opacity:1;"
       d="M 58 40 C 58 38.003906 56 36 54 36 L 58 36 Z M 58 40 "
       id="path18130" />
    <path
       style=" stroke:none;fill-rule:evenodd;fill:rgb(80%,80%,80%);fill-opacity:1;"
       d="M 58 36 L 70 36 L 70 38 L 58 38 Z M 58 36 "
       id="path18132" />
    <path
       style=" stroke:none;fill-rule:evenodd;fill:rgb(80%,80%,80%);fill-opacity:1;"
       d="M 54 36 C 55.292969 36 56.558594 36.867188 57.3125 38 L 58 38 L 58 36 Z M 54 36 "
       id="path18134" />
  </g>
</svg>
